lib/logo_tmp/nrk-logo-nrk-p3-with-bg.svg

<svg width="70" height="24" viewBox="0 0 70 24" fill="none" xmlns="http://www.w3.org/2000/svg">
<rect width="70" height="24" fill="#FFE100"/>
<path d="M52.476 6.00488H48.7748C48.7748 6.00488 50.8779 9.45744 50.9016 9.5009C50.9809 9.60074 51.0252 9.72385 51.0277 9.85131C51.0302 9.97876 50.9908 10.1035 50.9155 10.2064L48.7748 13.7154H52.4765C52.4765 13.7154 54.2616 10.7964 54.5057 10.3912C54.6215 10.236 54.6833 10.047 54.6815 9.85337C54.6797 9.65971 54.6145 9.47196 54.4959 9.31888C54.2326 8.87049 54.232 8.87078 52.476 6.00488Z" fill="black"/>
<path d="M48.2965 6.00492H45V17.9982H48.2965V6.00492Z" fill="black"/>
<path d="M64.0693 7.99177C63.9449 7.77956 62.8433 6.00488 62.8433 6.00488H54.9206L56.6512 8.90774H60.8242L59.1029 11.7296L61.0217 14.9536L59.1698 17.9973H62.552C63.0958 17.1078 63.9088 15.7319 64.0787 15.45C64.1952 15.2942 64.2573 15.1044 64.2555 14.9099C64.2537 14.7154 64.1881 14.5268 64.0688 14.3731C63.8995 14.0842 62.9937 12.6476 62.4524 11.7632C62.4524 11.7632 63.9088 9.34993 64.0787 9.06802C64.1951 8.91233 64.2572 8.72274 64.2556 8.52833C64.2539 8.33392 64.1885 8.14543 64.0693 7.99177Z" fill="black"/>
<path d="M56.4486 12.1193C55.9271 12.971 55.0552 14.3983 54.8918 14.6765C54.7768 14.8245 54.7136 15.0062 54.7118 15.1936C54.7101 15.381 54.7699 15.5637 54.8822 15.7138C55.0458 15.9853 55.9246 17.4239 56.4486 18.2817C56.9723 17.4247 57.8514 15.9861 58.0148 15.7138C58.1269 15.5637 58.1868 15.381 58.1851 15.1936C58.1834 15.0062 58.1203 14.8246 58.0055 14.6765C57.8421 14.3983 56.9698 12.971 56.4486 12.1193Z" fill="black"/>
<path d="M6.00427 18V6.00109H9.94146V18H6.00427ZM15.2981 7.91078L17.5623 18H13.2534L10.5498 6.00109H12.9664C13.5206 5.9939 14.0583 6.18925 14.4788 6.55039C14.8999 6.89638 15.1892 7.3767 15.2981 7.91078ZM18.1538 18V6.00109H22.091V18H18.1538ZM25.0647 10.5641C24.6405 10.5682 24.223 10.4572 23.8568 10.243C23.4955 10.0341 23.1954 9.73396 22.9865 9.3726C22.7721 9.00633 22.661 8.58876 22.6652 8.16432C22.6604 7.74246 22.7715 7.32738 22.9865 6.96443C23.1976 6.60699 23.4974 6.31009 23.8568 6.10252C24.2231 5.8885 24.6405 5.77751 25.0647 5.78138C25.4865 5.77684 25.9014 5.88793 26.2645 6.10252C26.6203 6.31191 26.9169 6.60856 27.1263 6.96443C27.3411 7.32748 27.4522 7.74249 27.4476 8.16432C27.4515 8.58873 27.3405 9.00623 27.1263 9.3726C26.9191 9.73238 26.6222 10.0323 26.2645 10.243C25.9014 10.458 25.4862 10.5691 25.0642 10.5641H25.0647ZM28.0559 18V6.00109H31.9934V18H28.0559ZM36.978 12.5582C36.9891 12.5699 37.0735 12.7079 37.2314 12.9723C37.3893 13.2367 37.5949 13.5747 37.8482 13.9863C38.1017 14.3977 38.3692 14.8343 38.6506 15.296C38.932 15.7577 39.1969 16.1944 39.4451 16.6058C39.6924 17.0172 39.974 17.4819 40.29 18H35.9641C35.6936 17.5606 35.4484 17.1635 35.2288 16.8086C35.0091 16.4537 34.7756 16.0706 34.5281 15.6594C34.2801 15.2485 34.0349 14.8485 33.7925 14.4595C33.5501 14.0704 33.3418 13.7296 33.1675 13.4371C32.9926 13.1443 32.8714 12.9471 32.8039 12.8455C32.6368 12.5934 32.5379 12.3023 32.517 12.0005C32.5337 11.7109 32.6269 11.431 32.787 11.1891C32.8546 11.0764 32.9786 10.8764 33.1588 10.5891C33.3391 10.3018 33.5503 9.96105 33.7925 9.56672C34.0347 9.17239 34.2799 8.7696 34.5281 8.35837C34.7763 7.94715 35.0098 7.56124 35.2288 7.20071C35.4488 6.84055 35.6939 6.44059 35.9641 6.00081H40.29L36.9439 11.4595C36.8404 11.6216 36.782 11.8083 36.7749 12.0005C36.786 12.2023 36.8565 12.3963 36.9774 12.5582H36.978Z" fill="black"/>
</svg>

<svg xmlns="http://www.w3.org/2000/svg" viewBox="0 0 70 24"><path fill="#FFE100" d="M0 0h70v24H0z"/><path fill="#000" d="M52.476 6.005h-3.701s2.103 3.452 2.127 3.496a.582.582 0 0 1 .014.705l-2.141 3.51h3.702s1.785-2.92 2.029-3.325a.886.886 0 0 0-.01-1.072c-.263-.449-.264-.448-2.02-3.314ZM48.297 6.005H45v11.993h3.297V6.005ZM64.07 7.992a324.263 324.263 0 0 0-1.227-1.987h-7.922l1.73 2.903h4.173l-1.721 2.822 1.919 3.224-1.852 3.043h3.382c.544-.89 1.357-2.265 1.527-2.547a.888.888 0 0 0-.01-1.077c-.17-.289-1.075-1.725-1.617-2.61l1.627-2.695a.89.89 0 0 0-.01-1.076Z"/><path fill="#000" d="M56.449 12.12c-.522.851-1.394 2.278-1.557 2.557a.856.856 0 0 0-.01 1.037c.164.271 1.043 1.71 1.567 2.568.523-.857 1.402-2.296 1.566-2.568a.856.856 0 0 0-.01-1.037 393.427 393.427 0 0 0-1.556-2.558ZM6.004 18V6.001h3.937V18H6.004Zm9.294-10.09L17.562 18h-4.309L10.55 6.001h2.416a2.276 2.276 0 0 1 1.513.55c.42.345.71.826.82 1.36ZM18.154 18V6.001h3.937V18h-3.937Zm6.91-7.436a2.383 2.383 0 0 1-2.4-2.4 2.303 2.303 0 0 1 .323-1.2 2.411 2.411 0 0 1 3.278-.861c.355.209.652.506.861.861.215.363.326.778.322 1.2a2.4 2.4 0 0 1-1.183 2.079 2.302 2.302 0 0 1-1.2.321ZM28.057 18V6.001h3.937V18h-3.937Zm8.922-5.442c.011.012.096.15.253.414.158.265.364.603.617 1.014a315.936 315.936 0 0 1 1.597 2.62c.247.411.529.876.845 1.394h-4.326c-.27-.44-.516-.837-.735-1.191-.22-.355-.453-.738-.7-1.15-.249-.41-.494-.81-.737-1.2-.242-.389-.45-.73-.625-1.022-.174-.293-.296-.49-.363-.591a1.748 1.748 0 0 1-.287-.845c.017-.29.11-.57.27-.812.068-.113.192-.313.372-.6s.391-.628.633-1.022c.243-.395.488-.797.736-1.209l.7-1.157.736-1.2h4.326l-3.346 5.458a1.08 1.08 0 0 0-.17.542c.012.201.082.395.203.557h.001Z"/></svg>
